X:1
T: Mrs. Muir McKenzie's Delight
T: The Belfast Almanack
R:Jig
Q:180
K:G
M:6/8
L:1/16
|:D2|G4G2 F2E2D2|G4G2 G4A2|B4G2 c4A2|B4G2 c4A2|
B2c2d2 E4E2|A2B2G2 F2E2D2|E2F2G2 A2F2D2|G6G4c2|
B2c2d2 d2e2f2|g4g2 g6|B4B2 B2c2d2|e4e2e6|
d2c2B2 c2d2e2|d2c2d2 D4D2|E2F2G2 A2F2D2|G6G4:|
